svg/treasure_chest_outline.svg

<svg xmlns="http://www.w3.org/2000/svg" viewBox="0 0 24 24"><path d="M2 20h20V7c0-.8-.32-1.56-.88-2.12S19.8 4 19 4H5c-.8 0-1.56.32-2.12.88S2 6.2 2 7zm18-9h-5V9H9v2H4V7c0-.26.11-.5.29-.71C4.5 6.11 4.74 6 5 6h14c.27 0 .5.11.71.29.19.21.29.45.29.71zm-5 2h5v5H4v-5h5l2 2h2zm-4-2h2v2h-2z"/></svg>

<svg xmlns="http://www.w3.org/2000/svg" id="mdi-treasure-chest-outline" viewBox="0 0 24 24"><path d="M2 20H22V7C22 6.2 21.68 5.44 21.12 4.88C20.56 4.32 19.8 4 19 4H5C4.2 4 3.44 4.32 2.88 4.88C2.32 5.44 2 6.2 2 7V20M20 11H15V9H9V11H4V7C4 6.74 4.11 6.5 4.29 6.29C4.5 6.11 4.74 6 5 6H19C19.27 6 19.5 6.11 19.71 6.29C19.9 6.5 20 6.74 20 7V11M15 13H20V18H4V13H9L11 15H13L15 13M11 11H13V13H11V11Z" /></svg>
